X: 1706
T: Sen Bezmimize Geldiğin Akşam
C: Hasan Âli Yücel
O: Turkey
F: http://compmusic.upf.edu/node/140
N: suzinak--sarki--curcuna--sen_bezmimize--hasan_ali_yucel
N: makam= suzinak
N: form= sarki
N: usul= curcuna = 10/8
M: 10/8
L: 1/16
K: C _1/4B _7/8e ^f 
Q: 1/4=204
%%MIDI tuningsystem comma53
g4 f2e4f4e2 d4  | e4 d2c4B2 c2de d^cB_7/8A  | \
w:  ARANAĞME  |   | 
G2_7/8A2 B2c2 d2e2 f2e2 d2c2  | 
w:   | 
d4 {f}e2d2 {e}c2B2 c2de fdef  | g4 f2{g}e4f4e2 d4  | \
w:   |   | 
e4 d2{e}c4B2 c2d6  | 
w:   | 
g2f2 e2d2 c2B2 c2B2 _7/8A2G2  | G4 e2d2 c2B2 _7/8A2GA Bcd2  | 
w:   |   | 
g4 f2e4f4e2 d4  | e4 d2c4B2 c2de d^cB_7/8A  | \
w:  ARANAĞME  |   | 
G2_7/8A2 B2c2 d2e2 f2e2 d2c2  | 
w:   | 
d4 {f}e2d2 {e}c2B2 c2de fdef  | g4 f2{g}e4f4e2 d4  | \
w:   |   | 
e4 d2{e}c4B2 c2d6  | 
w:   | 
g2f2 e2d2 c2B2 c2B2 _7/8A2G2  | G4 e2d2 c2B2 _7/8A2G6  | \
w:   |   | 
c6d4d8-d2  | 
w:  Sen  *  bez  | 
d6e4d2 c2B6  | c6d4e4e4d2  | a4 g2g2 f2f2 e2e4d2  | \
w:  mi mi ze   |  gel di ğin_ ak  |  şam  *  ne *  ler_ *  ol  | 
d4 e2d2 c2B2 _7/8A2G6  | 
w:  maz   SAZ  | 
c6d4d8-d2  | d6e4d2 c2B6  | c6d4e4e4d2  | \
w:  Sen  *  bez  |  mi mi ze   |  gel di ğin_ ak  | 
a4 g2g2 f2f2 e2e4d2  | 
w:  şam  *  ne *  ler_ *  ol  | 
d4 e2d2 c2B2 c2d6  | d4 e2f4g2 f2g6  | \
w:  maz   SAZ  |  Ser *  *  mest   | 
d6f4e2 d2e6  | c6d2 e2d2 c2B2 _7/8A2G2  | 
w:  e di yor  |  ken  be *  ni  *  aş  | 
d4 c2c2 B2B2 _7/8A2A4G2  | G4 e2d2 c2B2 c2.d6  | \
w:  kın  *  ke *  der_ *  ol  |  maz   SAZ  | 
d4 e2f4g2 f2g6  | 
w:  Ser *  *  mest   | 
d6f4e2 d2e6  | c6d2 e2d2 c2B2 _7/8A2G2  | \
w:  e di yor  |  ken  be *  ni  *  aş  | 
d4 c2c2 B2B2 _7/8A2A4G2  | 
w:  kın  *  ke *  der_ *  ol  | 
G4 e2d2 c2B2 _7/8A2G6  | g4 f2e4f4e2 d4  | \
w:  maz   SAZ  |  ARANAĞME  | 
e4 d2c4B2 c2de d^cB_7/8A  | 
w:   | 
G2_7/8A2 B2c2 d2e2 f2e2 d2c2  | d4 {f}e2d2 {e}c2B2 c2de fdef  | 
w:   |   | 
g4 f2{g}e4f4e2 d4  | e4 d2{e}c4B2 c2d6  | \
w:   |   | 
g2f2 e2d2 c2B2 c2B2 _7/8A2G2  | 
w:   | 
G4 e2d2 c2B2 _7/8A2GA Bcd2  | g4 f2e4f4e2 d4  | \
w:   |  ARANAĞME  | 
e4 d2c4B2 c2de d^cB_7/8A  | 
w:   | 
G2_7/8A2 B2c2 d2e2 f2e2 d2c2  | d4 {f}e2d2 {e}c2B2 c2de fdef  | 
w:   |   | 
g4 f2{g}e4f4e2 d4  | e4 d2{e}c4B2 c2d6  | \
w:   |   | 
g2f2 e2d2 c2B2 c2B2 _7/8A2G2  | 
w:   | 
G4 e2d2 c2B2 _7/8A2G6  | c6d4d8-d2  | \
w:   |  Sen  *  bez  | 
d6e4d2 c2B6  | c6d4e4e4d2  | 
w:  mi mi ze   |  gel di ğin_ ak  | 
a4 g2g2 f2f2 e2e4d2  | d4 e2d2 c2B2 _7/8A2G6  | \
w:  şam  *  ne *  ler_ *  ol  |  maz   SAZ  | 
c6d4d8-d2  | d6e4d2 c2B6  | 
w:  Sen  *  bez  |  mi mi ze   | 
c6d4e4e4d2  | a4 g2g2 f2f2 e2e4d2  | \
w:  gel di ğin_ ak  |  şam  *  ne *  ler_ *  ol  | 
d4 e2d2 c2B2 c2d6  | d4 e2f4g2 f2g6  | 
w:  maz   SAZ  |  Ser *  *  mest   | 
d6f4e2 d2e6  | c6d2 e2d2 c2B2 _7/8A2G2  | \
w:  e di yor  |  ken  be *  ni  *  aş  | 
d4 c2c2 B2B2 _7/8A2A4G2  | 
w:  kın  *  ke *  der_ *  ol  | 
G4 e2d2 c2B2 c2.d6  | d4 e2f4g2 f2g6  | \
w:  maz   SAZ  |  Ser *  *  mest   | 
d6f4e2 d2e6  | c6d2 e2d2 c2B2 _7/8A2G2  | 
w:  e di yor  |  ken  be *  ni  *  aş  | 
d4 c2c2 B2B2 _7/8A2A4G2  | G4 |
w:  kın  *  ke *  der_ *  ol  |  maz    | 


